X: 2
T: Ah Surely
R: reel
M: 4/4
L: 1/8
K: Gmaj
A3c BG~G2|BGBd g2fg|eA~A2 BGBd|egdc BAGB|A3c BG~G2|BGBd ~g3a|bgag (3efg fa|gedc BG~G2:|bg~g2 agef|~g3e dega|bg~g2 aged|eaag a2ga|bg~g2 agef|~g3e dega|bgag (3efg fa|gedc BG~G2:|


Tune 577	Setting 577

